public/svg/user_stories_2.svg

<svg width="175" height="63" viewBox="0 0 175 63" fill="none" xmlns="http://www.w3.org/2000/svg">
<path d="M23.3936 42.5454C22.933 42.4138 22.4065 42.2822 21.9459 42.1506C17.4713 40.7687 14.6418 36.6231 15.0366 31.9511C15.3656 27.4766 18.8532 23.7916 23.3278 23.1994C25.1044 22.9362 26.8811 23.0678 28.6578 23.1336C30.0396 23.1994 30.9609 24.5154 30.8951 26.0289C30.8293 27.2792 29.6448 28.3978 28.3946 28.3978C27.2101 28.3978 26.0915 28.3978 24.907 28.3978C22.2749 28.4636 20.3008 30.3061 20.3008 32.8066C20.3008 35.1097 22.1433 37.0838 24.4464 37.1496C26.0257 37.2154 27.6708 37.1496 29.25 37.1496C29.7764 37.1496 30.0396 36.8205 30.2371 36.3599C31.3557 33.333 32.5402 30.3061 33.6588 27.2792C34.6458 24.5154 37.2779 22.9362 39.7785 23.002C41.2919 23.0678 42.7396 23.002 44.253 23.002C49.254 23.002 53.5312 26.9501 53.926 31.8853C54.255 37.0838 50.7017 41.6241 45.7007 42.348C45.6349 42.348 45.5033 42.348 45.4375 42.4796C43.6608 42.4796 41.8183 42.4796 40.0417 42.4796C39.9759 42.348 39.9101 42.4138 39.8443 42.348C38.5282 41.8216 37.8702 40.5713 38.1334 39.3211C38.3966 38.005 39.4494 37.2154 40.8971 37.2154C42.0815 37.2154 43.2002 37.2154 44.3846 37.2154C46.8193 37.1496 48.7276 35.2413 48.7276 32.8066C48.7276 30.4377 46.8851 28.4636 44.3846 28.3978C42.937 28.332 41.4235 28.3978 39.9759 28.3978C39.252 28.3978 39.0546 28.5952 38.7914 29.2532C37.6728 32.2802 36.4883 35.3729 35.3697 38.3998C34.909 39.5843 34.251 40.5055 33.264 41.2951C32.4085 41.9532 31.4215 42.2822 30.4345 42.5454C27.9998 42.5454 25.6967 42.5454 23.3936 42.5454Z" fill="#1B2738"/>
<path d="M160 40.3084C159.803 40.5717 159.605 40.9007 159.276 41.0981C158.355 41.4929 157.368 40.9007 157.368 39.8478C157.368 35.11 157.368 30.438 157.368 25.7002C157.368 25.0422 157.763 24.5816 158.289 24.3842C158.882 24.1868 159.408 24.45 159.803 24.9106C159.869 25.0422 159.934 25.108 160 25.2396C160 30.3064 160 35.3074 160 40.3084Z" fill="#1B2738"/>
<path d="M150.261 29.5821C148.682 31.5561 147.234 33.3986 145.72 35.2411C144.931 36.2281 144.075 36.2281 143.286 35.2411C141.838 33.4644 140.456 31.6877 139.009 29.9111C138.943 29.8453 138.877 29.7795 138.745 29.5821C138.745 29.8453 138.745 30.0427 138.745 30.2401C138.745 33.3986 138.745 36.5571 138.745 39.7157C138.745 40.6369 138.285 41.2291 137.429 41.2291C136.574 41.2291 136.113 40.7027 136.113 39.7157C136.113 35.1095 136.113 30.5033 136.113 25.8971C136.113 25.1733 136.376 24.7127 136.969 24.5153C137.561 24.3178 138.087 24.4495 138.548 25.0417C140.456 27.4106 142.299 29.7137 144.207 32.0826C144.47 32.4116 144.536 32.3458 144.799 32.0826C146.642 29.7795 148.55 27.4106 150.392 25.1075C150.919 24.4495 151.38 24.3178 152.038 24.5153C152.63 24.7127 152.959 25.1733 152.959 25.9629C152.959 30.5691 152.959 35.1753 152.959 39.8473C152.959 40.5711 152.564 41.0317 151.972 41.2291C151.38 41.3607 150.721 41.0975 150.392 40.5711C150.261 40.3079 150.261 40.0447 150.261 39.7815C150.261 36.623 150.261 33.4644 150.261 30.3059C150.261 30.0427 150.261 29.9111 150.261 29.5821Z" fill="#1B2738"/>
<path d="M96.7637 32.8067C96.7637 30.5036 96.7637 28.2005 96.7637 25.8974C96.7637 24.9103 97.2901 24.4497 98.2771 24.4497C101.436 24.4497 104.528 24.4497 107.687 24.4497C108.608 24.4497 109.2 24.9761 109.2 25.7658C109.2 26.6212 108.674 27.0818 107.753 27.0818C105.186 27.0818 102.62 27.0818 100.054 27.0818C99.5274 27.0818 99.4616 27.2134 99.4616 27.674C99.5274 28.7927 99.4616 29.9113 99.4616 30.9642C99.4616 31.359 99.5274 31.4906 99.988 31.4906C101.962 31.4906 103.936 31.4906 105.976 31.4906C106.897 31.4906 107.49 32.017 107.49 32.8067C107.49 33.6621 106.963 34.1227 106.042 34.1227C104.068 34.1227 102.094 34.1227 100.054 34.1227C99.5932 34.1227 99.5274 34.2543 99.5274 34.6491C99.5274 35.7678 99.5274 36.8864 99.5274 38.0051C99.5274 38.3999 99.5932 38.5315 100.054 38.5315C102.62 38.5315 105.186 38.5315 107.753 38.5315C108.674 38.5315 109.266 39.0579 109.266 39.8475C109.266 40.703 108.74 41.1636 107.819 41.1636C104.66 41.1636 101.501 41.1636 98.3429 41.1636C97.4217 41.1636 96.8953 40.6372 96.8953 39.7159C96.7637 37.4128 96.7637 35.1097 96.7637 32.8067Z" fill="#1B2738"/>
<path d="M89.9202 35.4385C90.9073 36.623 91.8285 37.7416 92.8155 38.8603C93.0129 39.1235 93.2104 39.3867 93.2762 39.7815C93.2762 40.3737 93.0129 40.9002 92.4207 41.0976C91.8285 41.295 91.3021 41.1634 90.8415 40.6369C89.7228 39.3209 88.6042 38.0048 87.5513 36.623C87.2223 36.2282 86.8933 35.8333 86.5643 35.5043C86.1695 35.0437 86.0379 34.5831 86.3011 33.9909C86.4985 33.4644 86.9591 33.2012 87.5513 33.2012C89.328 33.0696 90.644 31.7536 90.5782 30.0427C90.5782 28.3318 89.2622 27.0816 87.4197 27.0158C85.9721 26.95 84.5244 27.0158 83.1425 27.0158C82.7477 27.0158 82.6819 27.1474 82.6819 27.4764C82.6819 31.5562 82.6819 35.6359 82.6819 39.7157C82.6819 40.4395 82.2871 40.9002 81.6949 41.0976C81.1026 41.2292 80.5104 40.966 80.1814 40.4395C80.0498 40.2421 80.0498 39.9789 80.0498 39.7815C80.0498 35.1095 80.0498 30.3717 80.0498 25.6997C80.0498 24.8443 80.5762 24.3179 81.4317 24.3179C83.5374 24.3179 85.7088 24.3179 87.8145 24.3179C90.644 24.3179 93.2104 26.95 93.2762 29.7795C93.2762 32.4116 92.1575 34.1883 89.9202 35.4385Z" fill="#1B2738"/>
<path d="M73.4695 41.2297C72.0877 41.2297 70.7058 41.2955 69.324 40.769C65.639 39.5188 63.3359 35.8996 63.6649 32.0173C63.994 28.2007 66.9551 25.108 70.7716 24.5158C72.4167 24.2526 74.1276 24.45 75.7726 24.45C76.4307 24.45 76.9571 25.108 76.8913 25.8318C76.8913 26.4899 76.3649 27.0821 75.641 27.0821C74.5224 27.0821 73.3379 27.0821 72.2193 27.0821C69.324 27.1479 67.1525 28.793 66.4287 31.4909C65.5732 34.9784 68.1395 38.4001 71.6929 38.5976C72.9431 38.6634 74.1934 38.5976 75.4436 38.5976C76.2991 38.5976 76.8255 39.124 76.8255 39.9136C76.8255 40.7032 76.2991 41.2297 75.4436 41.2297C74.7856 41.2297 74.1276 41.2297 73.4695 41.2297Z" fill="#1B2738"/>
<path d="M115.649 24.3839C117.294 24.3181 118.939 24.3839 120.452 25.0419C124.006 26.6212 125.98 30.3061 125.387 34.2543C124.795 37.8734 121.637 40.8345 117.886 41.0978C116.373 41.2294 114.925 41.1636 113.411 41.0978C112.688 41.0978 112.227 40.5055 112.227 39.7817C112.227 39.0579 112.753 38.4656 113.477 38.4656C114.727 38.4656 115.978 38.4656 117.228 38.4656C120.123 38.3998 122.492 36.1626 122.821 33.2014C123.084 30.4377 121.045 27.7398 118.281 27.1476C117.228 26.9502 116.175 27.016 115.122 27.016C114.596 27.016 114.135 27.016 113.609 27.016C112.753 27.016 112.161 26.4896 112.161 25.6999C112.161 24.9103 112.753 24.3839 113.609 24.3839C114.333 24.3839 114.991 24.3839 115.649 24.3839Z" fill="#1B2738"/>
<path d="M131.704 32.8067C131.704 35.1097 131.704 37.4128 131.704 39.7159C131.704 40.6372 131.178 41.2294 130.388 41.2294C129.533 41.2294 129.072 40.703 129.072 39.7817C129.072 35.1755 129.072 30.5694 129.072 25.8974C129.072 24.9761 129.599 24.4497 130.388 24.4497C131.178 24.4497 131.704 25.0419 131.704 25.9632C131.704 28.2005 131.704 30.5036 131.704 32.8067Z" fill="#1B2738"/>
</svg>

<svg xmlns="http://www.w3.org/2000/svg" width="175" height="63" fill="#1b2738"  xmlns:v="https://vecta.io/nano"><path d="M23.394 42.545l-1.448-.395c-4.475-1.382-7.304-5.527-6.909-10.199.329-4.474 3.817-8.16 8.291-8.752 1.777-.263 3.553-.132 5.33-.066 1.382.066 2.303 1.382 2.237 2.895-.066 1.25-1.25 2.369-2.5 2.369h-3.488c-2.632.066-4.606 1.908-4.606 4.409 0 2.303 1.843 4.277 4.146 4.343 1.579.066 3.224 0 4.804 0 .526 0 .79-.329.987-.79l3.422-9.081c.987-2.764 3.619-4.343 6.12-4.277 1.513.066 2.961 0 4.474 0 5.001 0 9.278 3.948 9.673 8.883.329 5.198-3.224 9.739-8.225 10.463-.066 0-.197 0-.263.132h-5.396c-.066-.132-.132-.066-.197-.132-1.316-.526-1.974-1.777-1.711-3.027.263-1.316 1.316-2.106 2.764-2.106h3.487c2.435-.066 4.343-1.974 4.343-4.409 0-2.369-1.843-4.343-4.343-4.409-1.448-.066-2.961 0-4.409 0-.724 0-.921.197-1.184.855L35.37 38.4c-.461 1.185-1.119 2.106-2.106 2.895-.856.658-1.843.987-2.83 1.25h-7.041zM160 40.308c-.197.263-.395.592-.724.79-.921.395-1.908-.197-1.908-1.25V25.7c0-.658.395-1.119.921-1.316.593-.197 1.119.066 1.514.526.066.132.131.197.197.329v15.069zm-9.739-10.726l-4.541 5.659c-.789.987-1.645.987-2.434 0l-4.277-5.33c-.066-.066-.132-.132-.264-.329v10.134c0 .921-.46 1.513-1.316 1.513s-1.316-.526-1.316-1.513V25.897c0-.724.263-1.184.856-1.382s1.118-.066 1.579.526l5.659 7.041c.263.329.329.263.592 0l5.593-6.975c.527-.658.988-.79 1.646-.592.592.197.921.658.921 1.448v13.884c0 .724-.395 1.184-.987 1.382-.592.132-1.251-.132-1.58-.658-.131-.263-.131-.526-.131-.79V29.582zm-53.497 3.225v-6.909c0-.987.526-1.448 1.513-1.448h9.41c.921 0 1.513.526 1.513 1.316 0 .855-.526 1.316-1.447 1.316h-7.699c-.527 0-.592.132-.592.592.066 1.119 0 2.237 0 3.29 0 .395.066.526.526.526h5.988c.921 0 1.514.526 1.514 1.316 0 .855-.527 1.316-1.448 1.316h-5.988c-.461 0-.527.132-.527.526v3.356c0 .395.066.526.527.526h7.699c.921 0 1.513.526 1.513 1.316 0 .856-.526 1.316-1.447 1.316h-9.476c-.921 0-1.448-.526-1.448-1.448l-.132-6.909zm-6.844 2.632l2.895 3.422c.197.263.395.526.461.921 0 .592-.263 1.119-.856 1.316s-1.119.066-1.579-.461l-3.29-4.014-.987-1.119c-.395-.461-.526-.921-.263-1.513.197-.527.658-.79 1.25-.79 1.777-.132 3.093-1.448 3.027-3.158 0-1.711-1.316-2.961-3.158-3.027-1.448-.066-2.895 0-4.277 0-.395 0-.461.132-.461.461v12.239c0 .724-.395 1.185-.987 1.382-.592.132-1.184-.132-1.514-.658-.132-.197-.132-.461-.132-.658V25.7c0-.855.526-1.382 1.382-1.382h6.383c2.83 0 5.396 2.632 5.462 5.462 0 2.632-1.119 4.409-3.356 5.659zM73.47 41.23c-1.382 0-2.764.066-4.145-.461-3.685-1.25-5.988-4.869-5.659-8.752.329-3.817 3.29-6.909 7.107-7.501 1.645-.263 3.356-.066 5.001-.066.658 0 1.185.658 1.119 1.382a1.25 1.25 0 0 1-1.25 1.25h-3.422c-2.895.066-5.067 1.711-5.791 4.409-.856 3.488 1.711 6.909 5.264 7.107 1.25.066 2.501 0 3.751 0 .855 0 1.382.526 1.382 1.316s-.526 1.316-1.382 1.316H73.47zm42.179-16.846c1.645-.066 3.29 0 4.803.658 3.554 1.579 5.528 5.264 4.935 9.212-.592 3.619-3.75 6.58-7.501 6.843-1.513.132-2.961.066-4.475 0-.723 0-1.184-.592-1.184-1.316s.526-1.316 1.25-1.316h3.751c2.895-.066 5.264-2.303 5.593-5.264.263-2.764-1.776-5.462-4.54-6.054-1.053-.197-2.106-.132-3.159-.132h-1.513c-.856 0-1.448-.526-1.448-1.316s.592-1.316 1.448-1.316h2.04zm16.055 8.423v6.909c0 .921-.526 1.514-1.316 1.514-.855 0-1.316-.526-1.316-1.448V25.897c0-.921.527-1.448 1.316-1.448s1.316.592 1.316 1.514v6.843z"/></svg>
